assets/images/mail-black.svg

<svg width="23" height="23" viewBox="0 0 23 23" fill="none" xmlns="http://www.w3.org/2000/svg">
<g clip-path="url(#clip0_85_3599)">
<path d="M0.872421 5.69808L10.9696 12.5584C11.2918 12.7765 11.7082 12.7765 12.0279 12.5584L22.1251 5.69808C22.6307 5.35605 22.3878 4.56543 21.7781 4.56543H1.2194C0.609705 4.56543 0.366817 5.35358 0.872421 5.69808ZM22.0309 6.78116L15.8844 10.9573L21.9491 16.8164C22.3432 17.1956 23 16.918 23 16.3703V7.2942C22.9975 6.79603 22.4424 6.50358 22.0309 6.78116ZM1.04839 16.8164L7.11315 10.9574L0.966602 6.78116C0.555179 6.5011 6.99424e-06 6.79603 6.99424e-06 7.2942V16.3703C-0.00247145 16.918 0.654317 17.1956 1.04839 16.8164Z" fill="#8AC900"/>
<path d="M20.841 18.4349C21.3987 18.4349 21.6713 17.7558 21.2723 17.3691L15.1505 11.4556L12.4391 13.2971C12.1541 13.4904 11.8269 13.587 11.4998 13.587C11.1726 13.587 10.8455 13.4904 10.5605 13.2971L7.84656 11.4556L1.72479 17.3691C1.32328 17.7558 1.59839 18.4349 2.15604 18.4349H20.841Z" fill="#8AC900"/>
</g>
<defs>
<clipPath id="clip0_85_3599">
<rect width="23" height="23" fill="#383838"/>
</clipPath>
</defs>
</svg>

<svg width="23" height="23" fill="none" xmlns="http://www.w3.org/2000/svg"><g clip-path="url(#a)" fill="#8AC900"><path d="m.872 5.698 10.098 6.86a.938.938 0 0 0 1.058 0l10.097-6.86c.506-.342.263-1.133-.347-1.133H1.22c-.61 0-.852.789-.347 1.133Zm21.159 1.083-6.147 4.176 6.065 5.86A.62.62 0 0 0 23 16.37V7.294a.621.621 0 0 0-.97-.513ZM1.048 16.816l6.065-5.859L.967 6.781A.619.619 0 0 0 0 7.294v9.076a.618.618 0 0 0 1.048.446Z"/><path d="M20.841 18.435a.62.62 0 0 0 .431-1.066l-6.121-5.913-2.712 1.841a1.67 1.67 0 0 1-1.879 0l-2.713-1.841-6.122 5.913a.62.62 0 0 0 .431 1.066h18.685Z"/></g><defs><clipPath id="a"><path fill="#383838" d="M0 0h23v23H0z"/></clipPath></defs></svg>
